X: 1
T: Josephine Keegan's
M: 4/4
L: 1/8
R: reel
K: Dmaj
|:dD (3DDD ADFuA| gfed cded| BE ~E2 gfed|cdec Augfe|
vdDFuA BcdB| gfed cdeg| fg (3agf gfed|1cueag fddc:|2cueag fdduf||
afvduf afba| gevcue gfga| fdAd fgaf| gevcue ^gaa=g|
fgef dAvFuA| BG (3GAG EFGE| FuA (3ABA GEed| cAvGE EDD2:|
